svg/azure-availability-set.svg

<?xml version="1.0" encoding="UTF-8"?>
<svg xmlns="http://www.w3.org/2000/svg" xmlns:xlink="http://www.w3.org/1999/xlink" width="32" height="32" viewBox="0 0 32 32">
<defs>
<linearGradient id="linear-pattern-0" gradientUnits="userSpaceOnUse" x1="10.31" y1="12.7" x2="10.31" y2="6.83" gradientTransform="matrix(1.777778, 0.00266842, -0.00266842, 1.777778, 0, 0)">
<stop offset="0" stop-color="rgb(0%, 47.058824%, 83.137256%)" stop-opacity="1"/>
<stop offset="0.82" stop-color="rgb(36.862746%, 62.7451%, 93.725491%)" stop-opacity="1"/>
</linearGradient>
<linearGradient id="linear-pattern-1" gradientUnits="userSpaceOnUse" x1="10.31" y1="14.97" x2="10.31" y2="12.7" gradientTransform="matrix(1.777778, 0.00266842, -0.00266842, 1.777778, 0, 0)">
<stop offset="0.15" stop-color="rgb(80.000001%, 80.000001%, 80.000001%)" stop-opacity="1"/>
<stop offset="1" stop-color="rgb(43.921569%, 43.921569%, 43.921569%)" stop-opacity="1"/>
</linearGradient>
</defs>
<path fill-rule="nonzero" fill="rgb(0%, 47.058824%, 83.137256%)" fill-opacity="1" d="M 3.769531 0.890625 L 7.269531 0.890625 L 7.269531 1.902344 L 3.769531 1.902344 Z M 29.5625 1.902344 L 30.132812 1.902344 L 30.132812 2.453125 L 31.109375 2.453125 L 31.109375 0.890625 L 29.5625 0.890625 Z M 2.507812 30.027344 L 2.007812 30.027344 L 2.007812 29.457031 L 0.890625 29.457031 L 0.890625 31.109375 L 2.507812 31.109375 Z M 30.132812 29.511719 L 30.132812 30.027344 L 29.5625 30.027344 L 29.5625 31.109375 L 31.109375 31.109375 L 31.109375 29.511719 Z M 2.007812 2.417969 L 2.007812 1.902344 L 2.507812 1.902344 L 2.507812 0.890625 L 0.890625 0.890625 L 0.890625 2.417969 Z M 6.507812 6.3125 L 21.101562 6.3125 C 21.238281 6.3125 21.371094 6.367188 21.464844 6.464844 C 21.5625 6.558594 21.617188 6.691406 21.617188 6.828125 L 21.617188 16.25 C 21.617188 16.535156 21.386719 16.765625 21.101562 16.765625 L 6.507812 16.765625 C 6.371094 16.765625 6.238281 16.710938 6.144531 16.617188 C 6.046875 16.519531 5.992188 16.386719 5.992188 16.25 L 5.992188 6.828125 C 5.992188 6.691406 6.046875 6.558594 6.144531 6.460938 C 6.238281 6.367188 6.371094 6.3125 6.507812 6.3125 Z M 6.507812 6.3125 "/>
<path fill-rule="nonzero" fill="rgb(31.37255%, 90.196079%, 100%)" fill-opacity="1" d="M 16.410156 10.027344 L 16.410156 13.066406 L 13.8125 14.59375 L 13.8125 11.539062 Z M 16.410156 10.027344 "/>
<path fill-rule="nonzero" fill="rgb(76.47059%, 94.509804%, 100%)" fill-opacity="1" d="M 16.410156 10.027344 L 13.8125 11.554688 L 11.199219 10.027344 L 13.8125 8.496094 Z M 16.410156 10.027344 "/>
<path fill-rule="nonzero" fill="rgb(61.176473%, 92.156863%, 100%)" fill-opacity="1" d="M 13.8125 11.554688 L 13.8125 14.59375 L 11.199219 13.066406 L 11.199219 10.027344 Z M 13.8125 11.554688 "/>
<path fill-rule="nonzero" fill="url(#linear-pattern-0)" d="M 11.023438 12.140625 L 25.617188 12.140625 C 25.902344 12.140625 26.132812 12.371094 26.132812 12.65625 L 26.132812 22.078125 C 26.132812 22.363281 25.902344 22.59375 25.617188 22.59375 L 11.023438 22.59375 C 10.738281 22.59375 10.507812 22.363281 10.507812 22.078125 L 10.507812 12.65625 C 10.507812 12.371094 10.738281 12.140625 11.023438 12.140625 Z M 11.023438 12.140625 "/>
<path fill-rule="nonzero" fill="rgb(31.37255%, 90.196079%, 100%)" fill-opacity="1" d="M 20.925781 15.839844 L 20.925781 18.878906 L 18.328125 20.410156 L 18.328125 17.367188 Z M 20.925781 15.839844 "/>
<path fill-rule="nonzero" fill="rgb(76.47059%, 94.509804%, 100%)" fill-opacity="1" d="M 20.925781 15.839844 L 18.328125 17.367188 L 15.714844 15.839844 L 18.328125 14.3125 Z M 20.925781 15.839844 "/>
<path fill-rule="nonzero" fill="rgb(61.176473%, 92.156863%, 100%)" fill-opacity="1" d="M 18.328125 17.367188 L 18.328125 20.410156 L 15.714844 18.878906 L 15.714844 15.839844 Z M 18.328125 17.367188 "/>
<path fill-rule="nonzero" fill="rgb(76.47059%, 94.509804%, 100%)" fill-opacity="1" d="M 15.714844 18.878906 L 18.328125 17.367188 L 18.328125 20.410156 Z M 15.714844 18.878906 "/>
<path fill-rule="nonzero" fill="rgb(61.176473%, 92.156863%, 100%)" fill-opacity="1" d="M 20.925781 18.878906 L 18.328125 17.367188 L 18.328125 20.410156 Z M 20.925781 18.878906 "/>
<path fill-rule="nonzero" fill="url(#linear-pattern-1)" d="M 21.457031 25.742188 C 19.910156 25.492188 19.859375 24.375 19.859375 22.578125 L 16.78125 22.578125 C 16.78125 24.355469 16.78125 25.492188 15.183594 25.742188 C 14.753906 25.808594 14.429688 26.175781 14.417969 26.613281 L 22.238281 26.613281 C 22.222656 26.171875 21.894531 25.804688 21.457031 25.742188 "/>
<path fill-rule="nonzero" fill="rgb(0%, 47.058824%, 83.137256%)" fill-opacity="1" d="M 9.011719 0.890625 L 12.515625 0.890625 L 12.515625 1.902344 L 9.011719 1.902344 Z M 14.238281 0.890625 L 17.742188 0.890625 L 17.742188 1.902344 L 14.238281 1.902344 Z M 19.484375 0.890625 L 22.988281 0.890625 L 22.988281 1.902344 L 19.484375 1.902344 Z M 24.730469 0.890625 L 28.230469 0.890625 L 28.230469 1.902344 L 24.730469 1.902344 Z M 3.804688 30.027344 L 7.308594 30.027344 L 7.308594 31.039062 L 3.804688 31.039062 Z M 9.03125 30.027344 L 12.535156 30.027344 L 12.535156 31.039062 L 9.03125 31.039062 Z M 14.277344 30.027344 L 17.777344 30.027344 L 17.777344 31.039062 L 14.277344 31.039062 Z M 19.519531 30.027344 L 23.023438 30.027344 L 23.023438 31.039062 L 19.519531 31.039062 Z M 24.746094 30.027344 L 28.25 30.027344 L 28.25 31.039062 L 24.746094 31.039062 Z M 30.097656 3.644531 L 31.109375 3.644531 L 31.109375 7.148438 L 30.097656 7.148438 Z M 30.097656 8.871094 L 31.109375 8.871094 L 31.109375 12.375 L 30.097656 12.375 Z M 30.097656 14.117188 L 31.109375 14.117188 L 31.109375 17.617188 L 30.097656 17.617188 Z M 30.097656 19.34375 L 31.109375 19.34375 L 31.109375 22.84375 L 30.097656 22.84375 Z M 30.097656 24.585938 L 31.109375 24.585938 L 31.109375 28.089844 L 30.097656 28.089844 Z M 0.890625 3.609375 L 1.902344 3.609375 L 1.902344 7.109375 L 0.890625 7.109375 Z M 0.890625 8.851562 L 1.902344 8.851562 L 1.902344 12.355469 L 0.890625 12.355469 Z M 0.890625 14.078125 L 1.902344 14.078125 L 1.902344 17.582031 L 0.890625 17.582031 Z M 0.890625 19.324219 L 1.902344 19.324219 L 1.902344 22.828125 L 0.890625 22.828125 Z M 0.890625 24.550781 L 1.902344 24.550781 L 1.902344 28.054688 L 0.890625 28.054688 Z M 0.890625 24.550781 "/>
</svg>

<svg role="img" viewBox="0 0 32 32" xmlns="http://www.w3.org/2000/svg"><defs><linearGradient gradientTransform="rotate(.086)scale(1.77778)" gradientUnits="userSpaceOnUse" id="azure-availability-set_svg__a" x1="10.31" x2="10.31" y1="12.7" y2="6.83"><stop offset="0" stop-color="rgb(0%, 47.058824%, 83.137256%)"/><stop offset=".82" stop-color="rgb(36.862746%, 62.7451%, 93.725491%)"/></linearGradient><linearGradient gradientTransform="rotate(.086)scale(1.77778)" gradientUnits="userSpaceOnUse" id="azure-availability-set_svg__b" x1="10.31" x2="10.31" y1="14.97" y2="12.7"><stop offset=".15" stop-color="rgb(80.000001%, 80.000001%, 80.000001%)"/><stop offset="1" stop-color="rgb(43.921569%, 43.921569%, 43.921569%)"/></linearGradient></defs><path d="M3.77.89h3.5v1.012h-3.5Zm25.793 1.012h.57v.551h.976V.891h-1.547ZM2.508 30.027h-.5v-.57H.89v1.652h1.617Zm27.625-.515v.515h-.57v1.082h1.546v-1.597ZM2.008 2.418v-.516h.5V.891H.89v1.527Zm4.5 3.895h14.594c.136 0 .27.054.363.152a.5.5 0 0 1 .152.363v9.422c0 .285-.23.516-.515.516H6.508a.52.52 0 0 1-.516-.516V6.828a.52.52 0 0 1 .516-.516m0 0" fill="rgb(0%, 47.058824%, 83.137256%)"/><path d="M16.41 10.027v3.04l-2.597 1.527v-3.055Zm0 0" fill="rgb(31.37255%, 90.196079%, 100%)"/><path d="m16.41 10.027-2.597 1.528-2.614-1.528 2.614-1.53Zm0 0" fill="rgb(76.47059%, 94.509804%, 100%)"/><path d="M13.813 11.555v3.039l-2.614-1.528v-3.039Zm0 0" fill="rgb(61.176473%, 92.156863%, 100%)"/><path d="M11.023 12.14h14.594c.285 0 .516.231.516.516v9.422c0 .285-.23.516-.516.516H11.023a.515.515 0 0 1-.515-.516v-9.422c0-.285.23-.515.515-.515m0 0" fill="url(#azure-availability-set_svg__a)"/><path d="M20.926 15.84v3.039l-2.598 1.531v-3.043Zm0 0" fill="rgb(31.37255%, 90.196079%, 100%)"/><path d="m20.926 15.84-2.598 1.527-2.613-1.527 2.613-1.527Zm0 0" fill="rgb(76.47059%, 94.509804%, 100%)"/><path d="M18.328 17.367v3.043l-2.613-1.531v-3.04Zm0 0" fill="rgb(61.176473%, 92.156863%, 100%)"/><path d="m15.715 18.879 2.613-1.512v3.043Zm0 0" fill="rgb(76.47059%, 94.509804%, 100%)"/><path d="m20.926 18.879-2.598-1.512v3.043Zm0 0" fill="rgb(61.176473%, 92.156863%, 100%)"/><path d="M21.457 25.742c-1.547-.25-1.598-1.367-1.598-3.164h-3.078c0 1.777 0 2.914-1.597 3.164a.91.91 0 0 0-.766.871h7.82a.91.91 0 0 0-.781-.87" fill="url(#azure-availability-set_svg__b)"/><path d="M9.012.89h3.504v1.012H9.012Zm5.226 0h3.504v1.012h-3.504Zm5.246 0h3.504v1.012h-3.504Zm5.246 0h3.5v1.012h-3.5ZM3.805 30.028h3.504v1.012H3.805Zm5.226 0h3.504v1.012H9.031Zm5.246 0h3.5v1.012h-3.5Zm5.243 0h3.503v1.012H19.52Zm5.226 0h3.504v1.012h-3.504Zm5.352-26.382h1.011v3.503h-1.011Zm0 5.226h1.011v3.504h-1.011Zm0 5.246h1.011v3.5h-1.011Zm0 5.227h1.011v3.5h-1.011Zm0 5.242h1.011v3.504h-1.011ZM.89 3.609h1.011v3.5H.891Zm0 5.243h1.011v3.503H.891Zm0 5.226h1.011v3.504H.891Zm0 5.246h1.011v3.504H.891Zm0 5.227h1.011v3.504H.891Zm0 0" fill="rgb(0%, 47.058824%, 83.137256%)"/></svg>
